X: 32014
T: Peeping Plover, The
R: reel
M: 4/4
K: Dmajor
fddd BAFA|AAde faaf|eeef d2Bd|ADFD Ez de|
fddd BAFA|AAde faaf|gfef dBBB|AFFE D4|
fddd BAFA|AAde fz af|eeef ddBd|ADFD Ez fa|
gefd BAFA|ABde faaf|gfef dz B/B/B|AFFE DFBF||
Az BF ABdf|bafe dBBB|Az BF ABdB|AFFF EEEF|
Az BF ABdf|bafe dz fa|gfef dBBB|AFFE DFBF|
AAAF AB dz|bafe dBBB|dz Bd ABdB|AFFF Ez A/B/c|
dBBB Adfb|afff ez fa|gfef dBBB|AFFE D3E||

